src/assets/images/discord.svg

<svg fill="none" height="54" viewBox="0 0 54 54" width="54" xmlns="http://www.w3.org/2000/svg"><path d="m40.9138 14.5337c-.0111-.0212-.0296-.0378-.052-.0469-2.5934-1.1713-5.3302-2.0065-8.1419-2.4848-.0256-.0046-.052-.0013-.0754.0097-.0235.0109-.0429.0289-.0554.0513-.3727.6658-.711 1.3497-1.0136 2.0491-3.0309-.4529-6.1138-.4529-9.1447 0-.3047-.7012-.6484-1.3852-1.0296-2.0491-.0131-.0219-.0326-.0395-.0559-.0503-.0233-.0109-.0495-.0146-.075-.0107-2.812.4773-5.549 1.3126-8.1421 2.4849-.0222.0093-.0409.0251-.0536.0453-5.18563 7.6231-6.60618 15.0587-5.9093 22.4023.00196.018.00758.0355.01652.0513s.02102.0297.03552.0408c3.01956 2.2008 6.39696 3.8807 9.98816 4.968.0253.0075.0523.0072.0774-.0009.025-.0081.047-.0236.0629-.0443.7713-1.0331 1.4547-2.127 2.0433-3.2707.0081-.0157.0128-.0329.0136-.0505s-.0021-.0351-.0087-.0515c-.0065-.0164-.0165-.0312-.0293-.0435s-.0281-.0218-.0449-.0278c-1.0777-.4059-2.121-.8953-3.1203-1.4634-.0181-.0105-.0333-.0252-.0443-.0429s-.0174-.0378-.0187-.0585c-.0012-.0206.0027-.0413.0115-.0601.0088-.0189.0222-.0353.039-.0478.2102-.1546.4168-.314.6196-.4779.0178-.0145.0393-.0237.0622-.0267.0228-.0031.046.0002.0671.0095 6.5462 2.9409 13.6334 2.9409 20.1021 0 .0211-.0099.0446-.0136.0677-.0109.0232.0028.0451.012.0632.0265.203.1649.4101.3247.6212.4795.0169.0124.0303.0287.0393.0474.0089.0188.013.0394.0119.0601s-.0073.0408-.0182.0586c-.0108.0177-.026.0326-.044.0432-.997.5729-2.0413 1.0619-3.1218 1.4618-.0168.0063-.032.016-.0447.0285s-.0226.0275-.0291.044c-.0064.0165-.0092.0341-.0082.0518.001.0176.0058.0349.014.0506.5984 1.1373 1.2809 2.2299 2.0417 3.2689.0155.0213.0374.0373.0625.0457.0252.0084.0525.0088.0779.0011 3.5976-1.0836 6.9809-2.7636 10.0042-4.9678.0148-.0106.027-.0241.036-.0397s.0145-.033.0161-.0508c.8343-8.49-1.3968-15.8647-5.9139-22.4024zm-20.547 17.9293c-1.9709 0-3.5949-1.7803-3.5949-3.9669 0-2.1865 1.5925-3.967 3.5949-3.967 2.018 0 3.6262 1.796 3.5947 3.9669 0 2.1867-1.5925 3.967-3.5947 3.967zm13.2912 0c-1.9708 0-3.5948-1.7803-3.5948-3.9669 0-2.1865 1.5925-3.967 3.5948-3.967 2.0181 0 3.6263 1.796 3.5948 3.9669 0 2.1867-1.5767 3.967-3.5948 3.967z" fill="#000"/></svg>

<svg width="54" height="54" viewBox="0 0 54 54" fill="none" xmlns="http://www.w3.org/2000/svg">
<path d="M40.9138 14.5337C40.9027 14.5125 40.8842 14.4959 40.8618 14.4868C38.2684 13.3155 35.5316 12.4803 32.7199 12.002C32.6943 11.9974 32.6679 12.0007 32.6445 12.0117C32.621 12.0226 32.6016 12.0406 32.5891 12.063C32.2164 12.7288 31.8781 13.4127 31.5755 14.1121C28.5446 13.6592 25.4617 13.6592 22.4308 14.1121C22.1261 13.4109 21.7824 12.7269 21.4012 12.063C21.3881 12.0411 21.3686 12.0235 21.3453 12.0127C21.322 12.0018 21.2958 11.9981 21.2703 12.002C18.4583 12.4793 15.7213 13.3146 13.1282 14.4869C13.106 14.4962 13.0873 14.512 13.0746 14.5322C7.88897 22.1553 6.46842 29.5909 7.1653 36.9345C7.16726 36.9525 7.17288 36.97 7.18182 36.9858C7.19076 37.0016 7.20284 37.0155 7.21734 37.0266C10.2369 39.2274 13.6143 40.9073 17.2055 41.9946C17.2308 42.0021 17.2578 42.0018 17.2829 41.9937C17.3079 41.9856 17.3299 41.9701 17.3458 41.9494C18.1171 40.9163 18.8005 39.8224 19.3891 38.6787C19.3972 38.663 19.4019 38.6458 19.4027 38.6282C19.4035 38.6106 19.4006 38.5931 19.394 38.5767C19.3875 38.5603 19.3775 38.5455 19.3647 38.5332C19.3519 38.5209 19.3366 38.5114 19.3198 38.5054C18.2421 38.0995 17.1988 37.6101 16.1995 37.042C16.1814 37.0315 16.1662 37.0168 16.1552 36.9991C16.1442 36.9814 16.1378 36.9613 16.1365 36.9406C16.1353 36.92 16.1392 36.8993 16.148 36.8805C16.1568 36.8616 16.1702 36.8452 16.187 36.8327C16.3972 36.6781 16.6038 36.5187 16.8066 36.3548C16.8244 36.3403 16.8459 36.3311 16.8688 36.3281C16.8916 36.325 16.9148 36.3283 16.9359 36.3376C23.4821 39.2785 30.5693 39.2785 37.038 36.3376C37.0591 36.3277 37.0826 36.324 37.1057 36.3267C37.1289 36.3295 37.1508 36.3387 37.1689 36.3532C37.3719 36.5181 37.579 36.6779 37.7901 36.8327C37.807 36.8451 37.8204 36.8614 37.8294 36.8801C37.8383 36.8989 37.8424 36.9195 37.8413 36.9402C37.8402 36.9609 37.834 36.981 37.8231 36.9988C37.8123 37.0165 37.7971 37.0314 37.7791 37.042C36.7821 37.6149 35.7378 38.1039 34.6573 38.5038C34.6405 38.5101 34.6253 38.5198 34.6126 38.5323C34.5999 38.5448 34.59 38.5598 34.5835 38.5763C34.5771 38.5928 34.5743 38.6104 34.5753 38.6281C34.5763 38.6457 34.5811 38.663 34.5893 38.6787C35.1877 39.816 35.8702 40.9086 36.631 41.9476C36.6465 41.9689 36.6684 41.9849 36.6935 41.9933C36.7187 42.0017 36.746 42.0021 36.7714 41.9944C40.369 40.9108 43.7523 39.2308 46.7756 37.0266C46.7904 37.016 46.8026 37.0025 46.8116 36.9869C46.8206 36.9713 46.8261 36.9539 46.8277 36.9361C47.662 28.4461 45.4309 21.0714 40.9138 14.5337ZM20.3668 32.463C18.3959 32.463 16.7719 30.6827 16.7719 28.4961C16.7719 26.3096 18.3644 24.5291 20.3668 24.5291C22.3848 24.5291 23.993 26.3251 23.9615 28.496C23.9615 30.6827 22.369 32.463 20.3668 32.463ZM33.658 32.463C31.6872 32.463 30.0632 30.6827 30.0632 28.4961C30.0632 26.3096 31.6557 24.5291 33.658 24.5291C35.6761 24.5291 37.2843 26.3251 37.2528 28.496C37.2528 30.6827 35.6761 32.463 33.658 32.463Z" fill="black"/>
</svg>
